shader_type spatial;

#include "res://Resources/ShaderIncs/ResoniteBlendMode.gdshaderinc"
#include "res://Resources/ShaderIncs/ResoniteIncludes.gdshaderinc"

void vertex() {
	// Called for every vertex the material is visible on.
}

void fragment() {
	// Called for every pixel the material is visible on.
}
